X: 21331
T: Ker Syllan
R: jig
M: 6/8
K: Eminor
|:EDE B2d|AFD DEF|EDE B2d|AFD E2F:|
B2B E2F|G2d B2A|BAB E2F|GBA F3
B2B E2F|G2d B2A|BAG FED|E2B,E3||

